Sources/FrostedUI/Resources/Icons.xcassets/tShirtFilled16.imageset/t-shirt-filled-16.svg

<svg width="16" height="16" viewBox="0 0 16 16" fill="none" xmlns="http://www.w3.org/2000/svg" data-fui-icon="true">
  <path
    d="M9.95911 1.08893C10.1736 0.974255 10.431 0.970367 10.6486 1.07916L15.2159 3.36334C15.8183 3.66491 16.0738 4.38965 15.7931 5.00201L14.7413 7.29401C14.4823 7.8585 13.8478 8.14702 13.2521 7.97174L13.0001 7.89752V13.7501C13.0001 14.4402 12.4403 14.9998 11.7501 15.0001H4.25012C3.55991 14.9999 3.00016 14.4403 3.00012 13.7501V7.89752L2.74915 7.97174C2.1533 8.14733 1.51903 7.85852 1.25989 7.29401L0.20813 5.00201C-0.0728673 4.38939 0.182419 3.66477 0.785278 3.36334L5.35266 1.07916L5.43567 1.04401C5.63361 0.97339 5.85438 0.988455 6.04211 1.08893C6.25584 1.20359 6.40113 1.41477 6.43176 1.65533C6.43276 1.66145 6.43535 1.67312 6.4386 1.68951C6.44557 1.72456 6.4583 1.78015 6.47864 1.84869C6.52022 1.98873 6.58998 2.17049 6.70227 2.34576C6.90923 2.66861 7.26737 2.99998 8.00012 3.00006C8.73311 2.99993 9.09205 2.66873 9.29895 2.34576C9.41124 2.17045 9.48101 1.98872 9.52258 1.84869C9.54292 1.78012 9.55567 1.72452 9.56262 1.68951C9.56604 1.67228 9.56756 1.66017 9.56848 1.65436C9.56889 1.65181 9.56946 1.65045 9.56946 1.65045C9.60145 1.41166 9.74645 1.20274 9.95911 1.08893Z"
    fill="currentColor"
  />
</svg>

<svg xmlns="http://www.w3.org/2000/svg" width="16" height="16" fill="none" data-fui-icon="true" viewBox="0 0 16 16"><path fill="currentColor" d="M9.96 1.089a.75.75 0 0 1 .689-.01l4.567 2.284a1.25 1.25 0 0 1 .577 1.639l-1.052 2.292a1.25 1.25 0 0 1-1.489.678L13 7.898v5.852c0 .69-.56 1.25-1.25 1.25h-7.5C3.56 15 3 14.44 3 13.75V7.898l-.25.074a1.25 1.25 0 0 1-1.49-.678L.208 5.002a1.25 1.25 0 0 1 .577-1.639L5.353 1.08l.083-.035a.75.75 0 0 1 .996.611q0 .01.007.035.01.054.04.159c.041.14.111.321.223.497C6.91 2.669 7.267 3 8 3S9.092 2.67 9.3 2.346a2 2 0 0 0 .264-.656l.005-.036.001-.004a.75.75 0 0 1 .39-.561"/></svg>
